X:17
T:Juliann Johnson
M:4/4
R:reel
Q:1/2=120
L:1/8
K:D
A2|"D"fafe dfed|"D"Bd- de d2fg|"D"a2 a2-aab2|"A"a8|
"D"fafe dfed|"D"Bd- de d2e2|"D"f2e2 "G"dAB2|"A"A6::
A2|"G"BABc d3A|"G"BABc d3A|"G"BABc dAB2|"D"A6-AA|
"G"BABc d3A|"G"BABc d2e2|"D"f2e2 "G"dAB2|"A"A6:|
